24x24/actions/fcitx-vk-inactive.svg

<svg xmlns="http://www.w3.org/2000/svg" width="24" height="24"><defs><style id="current-color-scheme" type="text/css"></style></defs><path style="fill:currentColor;opacity:.3;color:#323a41" d="M2 2S0 2 0 4v8c0 2 2 2 2 2h11s2 0 2-2V4c0-2-2-2-2-2zm.25 2h1.5S4 4 4 4.25v1.5S4 6 3.75 6h-1.5S2 6 2 5.75v-1.5S2 4 2.25 4zm3 0h1.5S7 4 7 4.25v1.5S7 6 6.75 6h-1.5S5 6 5 5.75v-1.5S5 4 5.25 4zm3 0h1.5s.25 0 .25.25v1.5S10 6 9.75 6h-1.5S8 6 8 5.75v-1.5S8 4 8.25 4zm3 0h1.5s.25 0 .25.25v1.5s0 .25-.25.25h-1.5S11 6 11 5.75v-1.5s0-.25.25-.25zm-9 3h1.5S4 7 4 7.25v1.5S4 9 3.75 9h-1.5S2 9 2 8.75v-1.5S2 7 2.25 7zm3 0h1.5S7 7 7 7.25v1.5S7 9 6.75 9h-1.5S5 9 5 8.75v-1.5S5 7 5.25 7zm3 0h1.5s.25 0 .25.25v1.5S10 9 9.75 9h-1.5S8 9 8 8.75v-1.5S8 7 8.25 7zm3 0h1.5s.25 0 .25.25v1.5s0 .25-.25.25h-1.5S11 9 11 8.75v-1.5s0-.25.25-.25zm-7 3h6.5s.25 0 .25.25v1.5s0 .25-.25.25h-6.5S4 12 4 11.75v-1.5s0-.25.25-.25z" transform="translate(4 4)"/></svg>

<svg xmlns="http://www.w3.org/2000/svg" width="24" height="24" version="1.1">
 <defs>
  <style id="current-color-scheme" type="text/css">
   .ColorScheme-Text { color:#323a41; } .ColorScheme-Highlight { color:#4285f4; } .ColorScheme-NeutralText { color:#ff9800; } .ColorScheme-PositiveText { color:#4caf50; } .ColorScheme-NegativeText { color:#f44336; }
  </style>
 </defs>
 <g transform="matrix(1,0,0,1,4,4)">
  <path style="fill:currentColor;opacity:0.3" class="ColorScheme-Text" d="M 2,2 C 2,2 0,2 0,4 V 12 C 0,14 2,14 2,14 H 13 C 13,14 15,14 15,12 V 4 C 15,2 13,2 13,2 Z M 2.25,4 H 3.75 C 3.75,4 4,4 4,4.25 V 5.75 C 4,5.75 4,6 3.75,6 H 2.25 C 2.25,6 2,6 2,5.75 V 4.25 C 2,4.25 2,4 2.25,4 Z M 5.25,4 H 6.75 C 6.75,4 7,4 7,4.25 V 5.75 C 7,5.75 7,6 6.75,6 H 5.25 C 5.25,6 5,6 5,5.75 V 4.25 C 5,4.25 5,4 5.25,4 Z M 8.25,4 H 9.75 C 9.75,4 10,4 10,4.25 V 5.75 C 10,5.75 10,6 9.75,6 H 8.25 C 8.25,6 8,6 8,5.75 V 4.25 C 8,4.25 8,4 8.25,4 Z M 11.25,4 H 12.75 C 12.75,4 13,4 13,4.25 V 5.75 C 13,5.75 13,6 12.75,6 H 11.25 C 11.25,6 11,6 11,5.75 V 4.25 C 11,4.25 11,4 11.25,4 Z M 2.25,7 H 3.75 C 3.75,7 4,7 4,7.25 V 8.75 C 4,8.75 4,9 3.75,9 H 2.25 C 2.25,9 2,9 2,8.75 V 7.25 C 2,7.25 2,7 2.25,7 Z M 5.25,7 H 6.75 C 6.75,7 7,7 7,7.25 V 8.75 C 7,8.75 7,9 6.75,9 H 5.25 C 5.25,9 5,9 5,8.75 V 7.25 C 5,7.25 5,7 5.25,7 Z M 8.25,7 H 9.75 C 9.75,7 10,7 10,7.25 V 8.75 C 10,8.75 10,9 9.75,9 H 8.25 C 8.25,9 8,9 8,8.75 V 7.25 C 8,7.25 8,7 8.25,7 Z M 11.25,7 H 12.75 C 12.75,7 13,7 13,7.25 V 8.75 C 13,8.75 13,9 12.75,9 H 11.25 C 11.25,9 11,9 11,8.75 V 7.25 C 11,7.25 11,7 11.25,7 Z M 4.25,10 H 10.75 C 10.75,10 11,10 11,10.25 V 11.75 C 11,11.75 11,12 10.75,12 H 4.25 C 4.25,12 4,12 4,11.75 V 10.25 C 4,10.25 4,10 4.25,10 Z"/>
 </g>
</svg>
